X:86
T:Lady Cunningham's Spice Wine
R:double jig
C: 1999, 2010 L.E. McCullough  
M:6/8
L:1/8
K:Edor
|:Bcd edB|AGE AGE|Bcd edB|AGE A3|
Bcd edB|AGE AGE|BAG AGE|FED E2A:|
|:Bdf gfe|Bdf g2e|fag fed|Bcd e2d|
Bdf gfe|Bdf g2a|bag age|fed e2d:|

